src/assets/SKILLS_T.svg

<svg width="148" height="35" fill="none" xmlns="http://www.w3.org/2000/svg"><path d="M22.512 9.328c-.8-.512-1.6-.912-2.4-1.2a16.282 16.282 0 0 0-2.256-.672c-.704-.16-1.36-.256-1.968-.288a15.404 15.404 0 0 0-1.584-.096c-.928 0-1.68.096-2.256.288-.544.192-.992.448-1.344.768-.32.32-.544.672-.672 1.056a3.831 3.831 0 0 0-.144 1.008c0 .544.096.992.288 1.344.224.352.592.656 1.104.912.544.256 1.264.48 2.16.672.928.192 2.08.4 3.456.624 1.376.224 2.688.56 3.936 1.008 1.248.416 2.336 1.008 3.264 1.776.96.768 1.712 1.744 2.256 2.928.576 1.152.864 2.576.864 4.272 0 1.728-.384 3.264-1.152 4.608a10.678 10.678 0 0 1-3.024 3.312c-1.216.864-2.624 1.52-4.224 1.968a17.388 17.388 0 0 1-4.8.672c-1.12 0-2.256-.064-3.408-.192a18.69 18.69 0 0 1-3.456-.624 19.81 19.81 0 0 1-3.456-1.44c-1.12-.608-2.224-1.392-3.312-2.352l4.272-5.664c1.568 1.408 3.152 2.352 4.752 2.832 1.6.448 3.264.672 4.992.672 1.632 0 2.88-.32 3.744-.96.864-.672 1.296-1.456 1.296-2.352a4.93 4.93 0 0 0-.144-1.2c-.096-.384-.304-.736-.624-1.056-.32-.352-.784-.64-1.392-.864-.608-.256-1.408-.432-2.4-.528-1.6-.16-3.136-.416-4.608-.768-1.472-.352-2.784-.896-3.936-1.632a9.016 9.016 0 0 1-2.784-2.928c-.672-1.216-1.008-2.768-1.008-4.656 0-1.76.336-3.28 1.008-4.56.704-1.312 1.6-2.384 2.688-3.216A10.842 10.842 0 0 1 9.984.928a14.2 14.2 0 0 1 4.128-.624c2.048 0 4.08.224 6.096.672 2.016.448 3.92 1.264 5.712 2.448l-3.408 5.904z" fill="#D3A7E0"/><path d="M50.34 34 41.7 19.792l-4.368 4.896V34H29.94V.592h7.392v14.304l.096.096L42.516 8.8l6.96-8.208h8.928L46.692 14.128 59.076 34H50.34zm9.37 0V.592h7.393V34H59.71zm12.046 0V.592h7.392v26.784h16.224V34H71.756zm26.158 0V.592h7.392v26.784h16.224V34H97.914zm45.311-24.672c-.8-.512-1.6-.912-2.4-1.2a16.282 16.282 0 0 0-2.256-.672c-.704-.16-1.36-.256-1.968-.288a15.404 15.404 0 0 0-1.584-.096c-.928 0-1.68.096-2.256.288-.544.192-.992.448-1.344.768-.32.32-.544.672-.672 1.056a3.831 3.831 0 0 0-.144 1.008c0 .544.096.992.288 1.344.224.352.592.656 1.104.912.544.256 1.264.48 2.16.672.928.192 2.08.4 3.456.624 1.376.224 2.688.56 3.936 1.008 1.248.416 2.336 1.008 3.264 1.776.96.768 1.712 1.744 2.256 2.928.576 1.152.864 2.576.864 4.272 0 1.728-.384 3.264-1.152 4.608a10.678 10.678 0 0 1-3.024 3.312c-1.216.864-2.624 1.52-4.224 1.968a17.388 17.388 0 0 1-4.8.672c-1.12 0-2.256-.064-3.408-.192a18.69 18.69 0 0 1-3.456-.624 19.81 19.81 0 0 1-3.456-1.44c-1.12-.608-2.224-1.392-3.312-2.352l4.272-5.664c1.568 1.408 3.152 2.352 4.752 2.832 1.6.448 3.264.672 4.992.672 1.632 0 2.88-.32 3.744-.96.864-.672 1.296-1.456 1.296-2.352a4.93 4.93 0 0 0-.144-1.2c-.096-.384-.304-.736-.624-1.056-.32-.352-.784-.64-1.392-.864-.608-.256-1.408-.432-2.4-.528-1.6-.16-3.136-.416-4.608-.768-1.472-.352-2.784-.896-3.936-1.632a9.016 9.016 0 0 1-2.784-2.928c-.672-1.216-1.008-2.768-1.008-4.656 0-1.76.336-3.28 1.008-4.56.704-1.312 1.6-2.384 2.688-3.216a10.842 10.842 0 0 1 3.744-1.872 14.2 14.2 0 0 1 4.128-.624c2.048 0 4.08.224 6.096.672 2.016.448 3.92 1.264 5.712 2.448l-3.408 5.904z" fill="#FBEDFF"/></svg>

<svg width="148" height="35" viewBox="0 0 148 35" fill="none" xmlns="http://www.w3.org/2000/svg">
<path d="M22.512 9.328C21.712 8.816 20.912 8.416 20.112 8.128C19.344 7.84 18.592 7.616 17.856 7.456C17.152 7.296 16.496 7.2 15.888 7.168C15.28 7.104 14.752 7.072 14.304 7.072C13.376 7.072 12.624 7.168 12.048 7.36C11.504 7.552 11.056 7.808 10.704 8.128C10.384 8.448 10.16 8.8 10.032 9.184C9.936 9.536 9.888 9.872 9.888 10.192C9.888 10.736 9.984 11.184 10.176 11.536C10.4 11.888 10.768 12.192 11.28 12.448C11.824 12.704 12.544 12.928 13.44 13.12C14.368 13.312 15.52 13.52 16.896 13.744C18.272 13.968 19.584 14.304 20.832 14.752C22.08 15.168 23.168 15.76 24.096 16.528C25.056 17.296 25.808 18.272 26.352 19.456C26.928 20.608 27.216 22.032 27.216 23.728C27.216 25.456 26.832 26.992 26.064 28.336C25.296 29.648 24.288 30.752 23.04 31.648C21.824 32.512 20.416 33.168 18.816 33.616C17.248 34.064 15.648 34.288 14.016 34.288C12.896 34.288 11.76 34.224 10.608 34.096C9.456 34 8.304 33.792 7.152 33.472C6 33.12 4.848 32.64 3.696 32.032C2.576 31.424 1.472 30.64 0.384 29.68L4.656 24.016C6.224 25.424 7.808 26.368 9.408 26.848C11.008 27.296 12.672 27.52 14.4 27.52C16.032 27.52 17.28 27.2 18.144 26.56C19.008 25.888 19.44 25.104 19.44 24.208C19.44 23.792 19.392 23.392 19.296 23.008C19.2 22.624 18.992 22.272 18.672 21.952C18.352 21.6 17.888 21.312 17.28 21.088C16.672 20.832 15.872 20.656 14.88 20.56C13.28 20.4 11.744 20.144 10.272 19.792C8.8 19.44 7.488 18.896 6.336 18.16C5.184 17.392 4.256 16.416 3.552 15.232C2.88 14.016 2.544 12.464 2.544 10.576C2.544 8.816 2.88 7.296 3.552 6.016C4.256 4.704 5.152 3.632 6.24 2.8C7.36 1.936 8.608 1.312 9.984 0.927999C11.36 0.511999 12.736 0.303999 14.112 0.303999C16.16 0.303999 18.192 0.527999 20.208 0.975999C22.224 1.424 24.128 2.24 25.92 3.424L22.512 9.328Z" fill="#D3A7E0"/>
<path d="M50.34 34L41.7 19.792L37.332 24.688V34H29.94V0.591998H37.332V14.896L37.428 14.992L42.516 8.8L49.476 0.591998H58.404L46.692 14.128L59.076 34H50.34ZM59.7109 34V0.591998H67.1029V34H59.7109ZM71.7562 34V0.591998H79.1482V27.376H95.3722V34H71.7562ZM97.9144 34V0.591998H105.306V27.376H121.53V34H97.9144ZM143.225 9.328C142.425 8.816 141.625 8.416 140.825 8.128C140.057 7.84 139.305 7.616 138.569 7.456C137.865 7.296 137.209 7.2 136.601 7.168C135.993 7.104 135.465 7.072 135.017 7.072C134.089 7.072 133.337 7.168 132.761 7.36C132.217 7.552 131.769 7.808 131.417 8.128C131.097 8.448 130.873 8.8 130.745 9.184C130.649 9.536 130.601 9.872 130.601 10.192C130.601 10.736 130.697 11.184 130.889 11.536C131.113 11.888 131.481 12.192 131.993 12.448C132.537 12.704 133.257 12.928 134.153 13.12C135.081 13.312 136.233 13.52 137.609 13.744C138.985 13.968 140.297 14.304 141.545 14.752C142.793 15.168 143.881 15.76 144.809 16.528C145.769 17.296 146.521 18.272 147.065 19.456C147.641 20.608 147.929 22.032 147.929 23.728C147.929 25.456 147.545 26.992 146.777 28.336C146.009 29.648 145.001 30.752 143.753 31.648C142.537 32.512 141.129 33.168 139.529 33.616C137.961 34.064 136.361 34.288 134.729 34.288C133.609 34.288 132.473 34.224 131.321 34.096C130.169 34 129.017 33.792 127.865 33.472C126.713 33.12 125.561 32.64 124.409 32.032C123.289 31.424 122.185 30.64 121.097 29.68L125.369 24.016C126.937 25.424 128.521 26.368 130.121 26.848C131.721 27.296 133.385 27.52 135.113 27.52C136.745 27.52 137.993 27.2 138.857 26.56C139.721 25.888 140.153 25.104 140.153 24.208C140.153 23.792 140.105 23.392 140.009 23.008C139.913 22.624 139.705 22.272 139.385 21.952C139.065 21.6 138.601 21.312 137.993 21.088C137.385 20.832 136.585 20.656 135.593 20.56C133.993 20.4 132.457 20.144 130.985 19.792C129.513 19.44 128.201 18.896 127.049 18.16C125.897 17.392 124.969 16.416 124.265 15.232C123.593 14.016 123.257 12.464 123.257 10.576C123.257 8.816 123.593 7.296 124.265 6.016C124.969 4.704 125.865 3.632 126.953 2.8C128.073 1.936 129.321 1.312 130.697 0.927999C132.073 0.511999 133.449 0.303999 134.825 0.303999C136.873 0.303999 138.905 0.527999 140.921 0.975999C142.937 1.424 144.841 2.24 146.633 3.424L143.225 9.328Z" fill="#FBEDFF"/>
</svg>
